build/img/group-1-tablet.svg

<svg width="648" height="93" fill="none" xmlns="http://www.w3.org/2000/svg"><path opacity=".6" fill="#000" d="M0 0h648v93H0z"/><path d="M43 39v-4l-5 5 5 5v-4c3.3 0 6 2.7 6 6s-2.7 6-6 6-6-2.7-6-6h-2c0 4.4 3.6 8 8 8s8-3.6 8-8-3.6-8-8-8zm544-3v6h3v-3h3v-3h-6zm3 14h-3v6h6v-3h-3v-3zm14-14h-3v3h3v3h3v-6h-3zm0 17h-3v3h6v-6h-3v3zm-51-17h-26c-1.7 0-3 1.3-3 3v14c0 1.7 1.3 3 3 3h26c1.7 0 3-1.3 3-3V39c0-1.7-1.3-3-3-3zm-14.6 15.9c-.5.1-1.1.1-1.7.1-.7 0-1.4-.1-2-.3-.6-.2-1.2-.6-1.6-1-.4-.4-.8-1.1-1.1-1.9-.3-.8-.4-1.7-.4-2.8 0-1.1.2-2.1.5-2.9.3-.8.7-1.4 1.2-1.9s1.1-.8 1.7-1c.5-.1 1.2-.2 1.8-.2.7 0 1.2 0 1.7.1s.8.2 1.1.3l-.4 1.9-.9-.3H537c-.9 0-1.6.3-2.2 1-.6.7-.8 1.7-.8 3 0 .6.1 1.1.2 1.6s.3.9.6 1.3c.3.3.6.6 1 .8.4.2.9.3 1.4.3.5 0 .9 0 1.3-.1.3-.1.6-.2.9-.4l.5 1.8c-.5.3-1 .4-1.5.6zm8.7 0c-.5.1-1.1.1-1.7.1-.7 0-1.4-.1-2-.3-.6-.2-1.2-.6-1.6-1-.5-.5-.9-1.1-1.1-1.9-.3-.8-.4-1.7-.4-2.8 0-1.1.2-2.1.5-2.9.3-.8.7-1.4 1.2-1.9s1.1-.8 1.7-1c.5-.1 1.2-.2 1.8-.2.7 0 1.2 0 1.7.1s.8.2 1.1.3l-.4 1.9-.9-.3h-1.3c-.9 0-1.6.3-2.2 1-.6.7-.8 1.7-.8 3 0 .6.1 1.1.2 1.6s.3.9.6 1.3c.3.3.6.6 1 .8.4.2.9.3 1.4.3.5 0 .9 0 1.3-.1.3-.1.6-.2.9-.4l.5 1.8c-.5.3-1 .4-1.5.6z" fill="#fff"/><path opacity=".2" fill="#fff" d="M93 45h389v3H93z"/><path fill-rule="evenodd" clip-rule="evenodd" d="M210.494 41.947a4.533 4.533 0 110 9.066 4.533 4.533 0 010-9.066z" fill="#fff"/></svg>

<svg width="648" height="93" viewBox="0 0 648 93" fill="none" xmlns="http://www.w3.org/2000/svg">
<rect opacity="0.6" width="648" height="93" fill="black"/>
<path d="M43 39V35L38 40L43 45V41C46.3 41 49 43.7 49 47C49 50.3 46.3 53 43 53C39.7 53 37 50.3 37 47H35C35 51.4 38.6 55 43 55C47.4 55 51 51.4 51 47C51 42.6 47.4 39 43 39Z" fill="white"/>
<path d="M587 36V39V42H590V39H593V36H590H587Z" fill="white"/>
<path d="M590 50H587V53V56H590H593V53H590V50Z" fill="white"/>
<path d="M604 36H601V39H604V42H607V39V36H604Z" fill="white"/>
<path d="M604 53H601V56H604H607V53V50H604V53Z" fill="white"/>
<path d="M553 36H527C525.3 36 524 37.3 524 39V53C524 54.7 525.3 56 527 56H553C554.7 56 556 54.7 556 53V39C556 37.3 554.7 36 553 36ZM538.4 51.9C537.9 52 537.3 52 536.7 52C536 52 535.3 51.9 534.7 51.7C534.1 51.5 533.5 51.1 533.1 50.7C532.7 50.3 532.3 49.6 532 48.8C531.7 48 531.6 47.1 531.6 46C531.6 44.9 531.8 43.9 532.1 43.1C532.4 42.3 532.8 41.7 533.3 41.2C533.8 40.7 534.4 40.4 535 40.2C535.5 40.1 536.2 40 536.8 40C537.5 40 538 40 538.5 40.1C539 40.2 539.3 40.3 539.6 40.4L539.2 42.3C538.9 42.2 538.6 42.1 538.3 42C537.9 42 537.5 42 537 42C536.1 42 535.4 42.3 534.8 43C534.2 43.7 534 44.7 534 46C534 46.6 534.1 47.1 534.2 47.6C534.3 48.1 534.5 48.5 534.8 48.9C535.1 49.2 535.4 49.5 535.8 49.7C536.2 49.9 536.7 50 537.2 50C537.7 50 538.1 50 538.5 49.9C538.8 49.8 539.1 49.7 539.4 49.5L539.9 51.3C539.4 51.6 538.9 51.7 538.4 51.9ZM547.1 51.9C546.6 52 546 52 545.4 52C544.7 52 544 51.9 543.4 51.7C542.8 51.5 542.2 51.1 541.8 50.7C541.3 50.2 540.9 49.6 540.7 48.8C540.4 48 540.3 47.1 540.3 46C540.3 44.9 540.5 43.9 540.8 43.1C541.1 42.3 541.5 41.7 542 41.2C542.5 40.7 543.1 40.4 543.7 40.2C544.2 40.1 544.9 40 545.5 40C546.2 40 546.7 40 547.2 40.1C547.7 40.2 548 40.3 548.3 40.4L547.9 42.3C547.6 42.2 547.3 42.1 547 42C546.6 42 546.2 42 545.7 42C544.8 42 544.1 42.3 543.5 43C542.9 43.7 542.7 44.7 542.7 46C542.7 46.6 542.8 47.1 542.9 47.6C543 48.1 543.2 48.5 543.5 48.9C543.8 49.2 544.1 49.5 544.5 49.7C544.9 49.9 545.4 50 545.9 50C546.4 50 546.8 50 547.2 49.9C547.5 49.8 547.8 49.7 548.1 49.5L548.6 51.3C548.1 51.6 547.6 51.7 547.1 51.9Z" fill="white"/>
<rect opacity="0.2" x="93" y="45" width="389" height="3" fill="white"/>
<path fill-rule="evenodd" clip-rule="evenodd" d="M210.494 41.9469C212.998 41.9469 215.027 43.9765 215.027 46.4802C215.027 48.9839 212.998 51.0136 210.494 51.0136C207.99 51.0136 205.961 48.9839 205.961 46.4802C205.961 43.9765 207.99 41.9469 210.494 41.9469Z" fill="white"/>
</svg>
